X: 34594
T: River Bend
R: jig
M: 6/8
K: Amixolydian
f|:e2 A f2 d|ecA Ace|g2 d BAB|GBd gdB|
e2 A f2 d|ecA Ace|g2 e dcd|ecA A2 f:|
aba aec|Ace agf|gag gdB|GBd gdB|
aba aec|Ace agf|g2 e dcd|ecA A2 e|
aba aec|Ace agf|gag gdB|GBd gdB|
=cBc d^cd|efg agf|g2 e dcd|ecA A2 f||

